!!!OTL: 407. Nix in der Grube (Huepfspiel, Ringelreigen).
!!!ARE: Europa, Mitteleuropa, Deutschland, Thueringen, Schlesien
!!!SCT: K2407
!!!TXL: @@DE
!!!YEM: Copyright 1995, estate of Helmut Schaffrath.
**kern	**text
*clefG2	*
*M2/4	*
*k[]	*
*C:	*
=1	=1
{4g	Nir
8g	in
8a	der
=2	=2
4g	Gru-
8e}	-be,
{8e	du
=3	=3
8g	biſt
8g	ein
8g	bö-
8a	-ſer
=4	=4
4g	Bu-
8e	-be!
8r}	.
=5	=5
{8g	Wa-
8g	-ſche
8g	dei-
8a	-ne
=6	=6
4g	Bein-
8e}	-chen
{8e	mit
=7	=7
8g	ro-
8g	-then
8g	Ʒie-
8a	-gel-
=8	=8
4g	-ſtein-
8e	-chen.
8r}	.
=9	=9
!LO:TX:a:t=(geſchrien)	!
{4g	Nix,
4g	greif'
=10	=10
2cc}	ʒu!
==	==
!!!AGN: Kinder - Lied, Tanz -, Lauf - Spiel
!!!ONB: ESAC (Essen Associative Code) Database: KINDER
!!!AMT: simple duple
!!!AIN: vox
!!!EED: Helmut Schaffrath
!!!EEV: 1.0
!!Melodie aus Thueringen und Schlesien.
!!!GTL: Zweites Buch. Kinderspiel: 3. Lauf-, Sprung- und Haschenspiele.
!!@@COMMENT:"Ein Kind (der Nix) kauert auf dem Boden und ʒieht einen Kreis um ſich herum, welcher ſein Gebiet beʒeichnet, über das es nicht hinausdarf, - oder es ſitʒt auf einem Fußbänkchen. Die andern 
!!Kinder gehen ſingend hintereinander um den Rix herum oder ſchließen einen Kreis um den lauernden. Bei den Worten "Nix greif ʒu! faßt das aufſpringende Kind eins der umgehenden und das 
!!erhaſchte muß nun der Nix ſein. - Heidniſcher Anklang läßt das Sviel ſehr alt erſcheinen."
!!@@END:
!!!URL-scan: https://archive.org/details/DeutschesKinderliedUndKinderspiel/page/576/mode/1up
!!!ENC: Anna Maria Matuszewska
!!!EEV: 2024/05/09
*-	*-
